assets/img/slack-icon.svg

<svg fill="none" height="33" viewBox="0 0 90 33" width="90" xmlns="http://www.w3.org/2000/svg"><path d="m4.20686 19.6429c0 1.1625-.93689 2.1019-2.09611 2.1019-1.159205 0-2.0961016-.9394-2.0961016-2.1019 0-1.1624.9368966-2.1019 2.0961016-2.1019h2.09611z" fill="#e01e5a"/><path d="m5.25293 19.6429c0-1.1624.9369-2.1019 2.09611-2.1019s2.0961.9395 2.0961 2.1019v5.2548c0 1.1624-.93689 2.1019-2.0961 2.1019s-2.09611-.9395-2.09611-2.1019z" fill="#e01e5a"/><path d="m7.35001 11.2038c-1.15921 0-2.0961-.9395-2.0961-2.10189 0-1.16242.93689-2.10191 2.0961-2.10191s2.09611.93949 2.09611 2.10191v2.10189z" fill="#36c5f0"/><path d="m7.35226 12.2715c1.15921 0 2.0961.9395 2.0961 2.1019s-.93689 2.1019-2.0961 2.1019h-5.25615c-1.159213 0-2.09611-.9395-2.09611-2.1019s.936897-2.1019 2.09611-2.1019z" fill="#36c5f0"/><path d="m15.7461 14.3734c0-1.1624.9369-2.1019 2.0961-2.1019s2.0961.9395 2.0961 2.1019-.9369 2.1019-2.0961 2.1019h-2.0961z" fill="#2eb67d"/><path d="m14.7 14.3726c0 1.1624-.9369 2.1019-2.0961 2.1019s-2.0961-.9395-2.0961-2.1019v-5.27069c0-1.16242.9369-2.10191 2.0961-2.10191s2.0961.93949 2.0961 2.10191z" fill="#2eb67d"/><path d="m12.6039 22.7949c1.1592 0 2.0961.9395 2.0961 2.1019 0 1.1625-.9369 2.1019-2.0961 2.1019s-2.0961-.9394-2.0961-2.1019v-2.1019z" fill="#ecb22e"/><path d="m12.6039 21.7448c-1.1592 0-2.0961-.9394-2.0961-2.1019 0-1.1624.9369-2.1019 2.0961-2.1019h5.2562c1.1592 0 2.0961.9395 2.0961 2.1019 0 1.1625-.9369 2.1019-2.0961 2.1019z" fill="#ecb22e"/><path d="m32.458 9.424c-3.696 0-6.138 1.804-6.138 4.642 0 5.456 8.14 3.828 8.14 6.556 0 .88-.77 1.342-2.002 1.342-1.606 0-3.982-.924-5.566-2.31l-1.518 3.014c1.826 1.496 4.466 2.464 7.04 2.464 3.432 0 6.16-1.628 6.16-4.708 0-5.566-8.14-4.048-8.14-6.71 0-.748.682-1.122 1.694-1.122 1.254 0 3.3.66 4.928 1.606l1.474-3.058c-1.584-1.034-3.85-1.716-6.072-1.716zm12.5742 15.576v-16.324h-3.806v16.324zm8.9164-12.034c-1.98 0-3.652.484-5.5 1.342l1.078 2.508c1.254-.638 2.552-.99 3.542-.99 1.54 0 2.31.704 2.31 1.87v.176h-3.124c-2.948.022-4.554 1.342-4.554 3.586 0 2.178 1.54 3.718 4.07 3.718 1.606 0 2.86-.528 3.63-1.54v1.364h3.718v-7.744c-.022-2.684-1.914-4.29-5.17-4.29zm-1.012 9.636c-1.056 0-1.672-.55-1.672-1.408 0-.88.572-1.276 1.716-1.276h2.398v1.056c-.242.968-1.254 1.628-2.442 1.628zm14.4894-9.592c-3.674 0-6.16 2.442-6.16 6.094 0 3.608 2.464 6.028 6.116 6.028 2.508 0 4.422-1.012 5.39-2.75l-2.772-1.628c-.506.902-1.342 1.342-2.42 1.342-1.474 0-2.486-1.188-2.486-3.014 0-1.782 1.012-2.992 2.486-2.992 1.034 0 1.848.462 2.398 1.232l2.728-1.65c-1.034-1.694-2.926-2.662-5.28-2.662zm12.8155 7.414 2.574 4.576h4.51l-4.488-7.304 4.356-4.554h-4.312l-3.916 4.158v-8.624h-3.806v16.324h3.806v-3.234z" fill="#4a154b"/></svg>

<svg width="90" height="33" viewBox="0 0 90 33" fill="none" xmlns="http://www.w3.org/2000/svg">
<path d="M4.20686 19.6429C4.20686 20.8054 3.26997 21.7448 2.11075 21.7448C0.951545 21.7448 0.0146484 20.8054 0.0146484 19.6429C0.0146484 18.4805 0.951545 17.541 2.11075 17.541H4.20686V19.6429Z" fill="#E01E5A"/>
<path d="M5.25293 19.6429C5.25293 18.4805 6.18983 17.541 7.34904 17.541C8.50825 17.541 9.44514 18.4805 9.44514 19.6429V24.8977C9.44514 26.0601 8.50825 26.9996 7.34904 26.9996C6.18983 26.9996 5.25293 26.0601 5.25293 24.8977V19.6429Z" fill="#E01E5A"/>
<path d="M7.35001 11.2038C6.1908 11.2038 5.25391 10.2643 5.25391 9.10191C5.25391 7.93949 6.1908 7 7.35001 7C8.50922 7 9.44612 7.93949 9.44612 9.10191V11.2038H7.35001Z" fill="#36C5F0"/>
<path d="M7.35226 12.2715C8.51147 12.2715 9.44836 13.211 9.44836 14.3734C9.44836 15.5358 8.51147 16.4753 7.35226 16.4753H2.09611C0.936897 16.4753 0 15.5358 0 14.3734C0 13.211 0.936897 12.2715 2.09611 12.2715H7.35226Z" fill="#36C5F0"/>
<path d="M15.7461 14.3734C15.7461 13.211 16.683 12.2715 17.8422 12.2715C19.0014 12.2715 19.9383 13.211 19.9383 14.3734C19.9383 15.5358 19.0014 16.4753 17.8422 16.4753H15.7461V14.3734Z" fill="#2EB67D"/>
<path d="M14.7 14.3726C14.7 15.535 13.7631 16.4745 12.6039 16.4745C11.4447 16.4745 10.5078 15.535 10.5078 14.3726V9.10191C10.5078 7.93949 11.4447 7 12.6039 7C13.7631 7 14.7 7.93949 14.7 9.10191V14.3726Z" fill="#2EB67D"/>
<path d="M12.6039 22.7949C13.7631 22.7949 14.7 23.7344 14.7 24.8968C14.7 26.0593 13.7631 26.9987 12.6039 26.9987C11.4447 26.9987 10.5078 26.0593 10.5078 24.8968V22.7949H12.6039Z" fill="#ECB22E"/>
<path d="M12.6039 21.7448C11.4447 21.7448 10.5078 20.8054 10.5078 19.6429C10.5078 18.4805 11.4447 17.541 12.6039 17.541H17.8601C19.0193 17.541 19.9562 18.4805 19.9562 19.6429C19.9562 20.8054 19.0193 21.7448 17.8601 21.7448H12.6039Z" fill="#ECB22E"/>
<path d="M32.458 9.424C28.762 9.424 26.32 11.228 26.32 14.066C26.32 19.522 34.46 17.894 34.46 20.622C34.46 21.502 33.69 21.964 32.458 21.964C30.852 21.964 28.476 21.04 26.892 19.654L25.374 22.668C27.2 24.164 29.84 25.132 32.414 25.132C35.846 25.132 38.574 23.504 38.574 20.424C38.574 14.858 30.434 16.376 30.434 13.714C30.434 12.966 31.116 12.592 32.128 12.592C33.382 12.592 35.428 13.252 37.056 14.198L38.53 11.14C36.946 10.106 34.68 9.424 32.458 9.424ZM45.0322 25V8.676H41.2262V25H45.0322ZM53.9486 12.966C51.9686 12.966 50.2966 13.45 48.4486 14.308L49.5266 16.816C50.7806 16.178 52.0786 15.826 53.0686 15.826C54.6086 15.826 55.3786 16.53 55.3786 17.696V17.872H52.2546C49.3066 17.894 47.7006 19.214 47.7006 21.458C47.7006 23.636 49.2406 25.176 51.7706 25.176C53.3766 25.176 54.6306 24.648 55.4006 23.636V25H59.1186V17.256C59.0966 14.572 57.2046 12.966 53.9486 12.966ZM52.9366 22.602C51.8806 22.602 51.2646 22.052 51.2646 21.194C51.2646 20.314 51.8366 19.918 52.9806 19.918H55.3786V20.974C55.1366 21.942 54.1246 22.602 52.9366 22.602ZM67.426 13.01C63.752 13.01 61.266 15.452 61.266 19.104C61.266 22.712 63.73 25.132 67.382 25.132C69.89 25.132 71.804 24.12 72.772 22.382L70 20.754C69.494 21.656 68.658 22.096 67.58 22.096C66.106 22.096 65.094 20.908 65.094 19.082C65.094 17.3 66.106 16.09 67.58 16.09C68.614 16.09 69.428 16.552 69.978 17.322L72.706 15.672C71.672 13.978 69.78 13.01 67.426 13.01ZM80.2415 20.424L82.8155 25H87.3255L82.8375 17.696L87.1935 13.142H82.8815L78.9655 17.3V8.676H75.1595V25H78.9655V21.766L80.2415 20.424Z" fill="#4A154B"/>
</svg>
